images/html-ico.svg

<svg enable-background="new 0 0 69 97.4" viewBox="0 0 69 97.4" xmlns="http://www.w3.org/2000/svg"><g fill="#576371"><path d="m6.4 0h4.4v4.3h4v-4.3h4.4v13.1h-4.4v-4.4h-4v4.4h-4.4zm18.6 4.4h-3.9v-4.4h12.1v4.4h-3.9v8.8h-4.3zm10.2-4.4h4.6l2.8 4.6 2.8-4.6h4.6v13.1h-4.4v-6.5l-3 4.7h-.1l-3-4.7v6.5h-4.3zm16.9 0h4.4v8.8h6.2v4.3h-10.6z"/><path d="m0 19.1 6.3 70.4 28.2 7.8 28.2-7.8 6.3-70.4zm55.9 16.7-.4 4.4-.2 1.9h-20.8-12.2l.8 8.8h11.4 17.7 2.3l-.2 2.3-2 22.7-.1 1.5-17.7 4.9-17.7-4.9-1.3-13.4h8.7l.6 6.9 9.6 2.6 9.6-2.6 1-11.2h-10.5-19.3l-2.2-23.9-.2-2.3h21.6 21.6z"/></g></svg>

<?xml version="1.0" encoding="utf-8"?>
<!-- Generator: Adobe Illustrator 22.1.0, SVG Export Plug-In . SVG Version: 6.00 Build 0)  -->
<svg version="1.1" id="Layer_1" xmlns="http://www.w3.org/2000/svg" xmlns:xlink="http://www.w3.org/1999/xlink" x="0px" y="0px"
	 viewBox="0 0 69 97.4" style="enable-background:new 0 0 69 97.4;" xml:space="preserve">
<style type="text/css">
	.st0{fill:#576371;}
</style>
<g>
	<path class="st0" d="M6.4,0h4.4v4.3h4V0h4.4v13.1h-4.4V8.7h-4v4.4H6.4L6.4,0L6.4,0z M25,4.4h-3.9V0h12.1v4.4h-3.9v8.8H25L25,4.4z
		 M35.2,0h4.6l2.8,4.6L45.4,0h4.6v13.1h-4.4V6.6l-3,4.7h-0.1l-3-4.7v6.5h-4.3L35.2,0L35.2,0z M52.1,0h4.4v8.8h6.2v4.3H52.1V0z"/>
	<path class="st0" d="M0,19.1l6.3,70.4l28.2,7.8l28.2-7.8L69,19.1H0z M55.9,35.8l-0.4,4.4l-0.2,1.9H34.5l0,0H22.3l0.8,8.8h11.4l0,0
		l17.7,0h2.3l-0.2,2.3l-2,22.7l-0.1,1.5l-17.7,4.9v0l0,0l-17.7-4.9L15.5,64h8.7l0.6,6.9l9.6,2.6l0,0v0l9.6-2.6l1-11.2H34.5l0,0H15.2
		L13,35.8l-0.2-2.3h21.6l0,0h21.6L55.9,35.8z"/>
</g>
</svg>
